X:1
T:Title
%%score 1 { ( 2 3 ) | ( 4 5 ) }
L:1/8
Q:1/4=106
M:4/4
K:Eb
V:1 treble nm="Akkordion"
V:2 bass nm="Grand Piano"
V:3 bass 
V:4 bass 
V:5 bass 
V:1
 B3 =A c2 B2 | B3 G B2 A2 | G3 F A3 G | G3 F E2 z2 | B3 =A c2 B2 | B3 G B2 A2 | G3 F AFCD | E6 z2 | %8
w: H.~H.~Booth * * *||||||||
 F3 G AG F2 | G3 c B2 G2 | F3 G AG F2 | G3 c B2 z2 | B3 G e3 d | c d2 c B2 G2 | E3 F G B2 A | %15
w: |||||||
 G3 F E2 z2 | z8 | z8 | z8 | z8 | z8 | z8 | z8 | z8 |] %24
w: |||||||||
V:2
 z G,B,E z E z E | z B,D=E z A,[K:treble]CF | z B,DB, z B,DB, | %3
 z B,[K:treble]DF [G,E]B,=A,[K:bass]B, | z G,B,E z E z E | z B,C=E z A,CE | %6
 z B,[K:treble]GF[K:bass] z B,[K:treble]GF | z B,[K:treble]GB cBG[K:bass]B, | %8
 z[K:treble] DFG [FA]GFC | z GEA [B,G]2 E2 | z D[K:treble]FG [FA]GF[K:bass]B, | %11
 z[K:treble] GEA [B,G]2 E2 | z B,[K:treble]BB,[K:bass] z B,[K:treble]BB, | %13
 z C[K:treble]AC[K:bass] z B,[K:treble]GB, | z E[K:treble]EF [EG]B,BA | %15
 z C[K:treble]DF[K:bass] [E,G,E]2 z2 | B3 =A c2 B2 | G4 [DF]4 | [FA]3 [EG] [FA]2 [Dc]2 | %19
 [EB]4 [EG]4 | [GB]3 [_G=A] [=GB]2 [Be]2 | [Bd]2 c2 [EGB]2 [CFA]2 | [B,EG]3 [EB] [DA]2 [DF]2 | %23
 E6 z2 |] %24
V:3
 E,2 z2 E,2 E,2 | C,2 z2 F,2[K:treble] z2 | B,,2 z2 B,,2 z2 | D,2[K:treble] z2 z4[K:bass] | %4
 E,2 z2 E,2 E,2 | C,2 z2 F,2 z2 | B,,2[K:treble] z2[K:bass] B,,2[K:treble] z2 | %7
 E,2[K:treble] z2 z4[K:bass] | B,,2[K:treble] z2 z4 | E,2 z2 z4 | B,,2[K:treble] z2 z4[K:bass] | %11
 E,2[K:treble] z2 z4 | E,2[K:treble] z2[K:bass] G,,2[K:treble] z2 | %13
 A,,2[K:treble] z2[K:bass] E,2[K:treble] z2 | A,,2[K:treble] z2 z4 | B,,2[K:treble] z2[K:bass] z4 | %16
 x8 | x8 | x8 | x8 | x8 | x8 | x8 | x8 |] %24
V:4
 E,,2 z2 z [A,C] z [G,B,] | C,,2 z2 F,,2 z2 | B,,,2 z2 B,,,2 z2 | B,,,2 z A, [E,,E,]2 z2 | %4
 E,,2 z2 z [A,C] z [G,B,] | C,,2 z2 F,,2 z2 | B,,,2 ED B,,,2 ED | E,,2[K:treble] EG AG .E2 | %8
 B,,,2 z =E z _E .D2 | E,,2 z C [E,,E,]2 G,2 | B,,,2 z =E z _E .D2 | E,,2 z C [E,,E,]2 G,2 | %12
 E,,2 .[EG]2 G,,,2 .[EG]2 | A,,,2 .E2 E,,2 .E2 | z CC=B, [B,,,B,,]2[K:treble] GC | %15
 B,,,2 z A, E,,2 z2 | [E,G,E]3 [E,_G,E] [E,A,E]2 [E,=G,E]2 | [E,B,E]4 [B,,B,]4 | %18
 [B,,B,]3 [B,,B,] [B,,B,]2 [B,,A,]2 | [E,G,]4 [E,B,]4 | [E,E]3 [E,E] [E,E]2[K:treble] [G,E]2 | %21
 [A,E]4[K:bass] z4 | B,,3 [B,,G,] [B,,F,]2 [B,,A,]2 | [E,G,]6 z2 |] %24
V:5
 z4 E,,2 E,,2 | x8 | x8 | x8 | z4 E,,2 E,,2 | x8 | x8 | x2[K:treble] x6 | z4 [B,,,B,,]2 z2 | x8 | %10
 z4 [B,,,B,,]2 z2 | x8 | x8 | x8 | A,,,2 z2 z4[K:treble] | x8 | x8 | x8 | x8 | x8 | %20
 x6[K:treble] x2 | z2 A2[K:bass] E,2 A,,2 | x8 | x8 |] %24

